ufans-frontend-package/public/assets/images/new-settings/audio-call-history.svg

<?xml version="1.0"?>
<svg xmlns="http://www.w3.org/2000/svg" xmlns:xlink="http://www.w3.org/1999/xlink" xmlns:svgjs="http://svgjs.com/svgjs" version="1.1" width="512" height="512" x="0" y="0" viewBox="0 0 96 96" style="enable-background:new 0 0 512 512" xml:space="preserve"><g><g xmlns="http://www.w3.org/2000/svg" id="Layer_1"><g><path d="m64.704 92c3.93-.001 6.725-.803 8.309-2.388l9.488-9.487c.681-.682 2.125-2.605.826-5.742-2.618-6.32-19.446-18.959-24.009-18.959-.974 0-1.87.359-2.522 1.011l-9.017 9.016c-11.25-3.269-15.739-12.384-17.212-16.426l9.747-9.747c1.158-1.158 1.318-2.775.477-4.806-1.938-4.678-14.539-22.38-21.656-22.38-1.272 0-2.452.479-3.321 1.349l-9.488 9.487c-6.001 6.002.019 33.508 16.513 50.002 13.103 13.104 30.887 19.071 41.865 19.07zm-53.922-64.707 8.77-8.77c1.366.702 4.388 3.193 8.499 8.167 3.355 4.058 5.675 7.62 6.62 9.41l-9.314 9.314c-1.164 1.165-1.583 2.867-1.092 4.441 1.281 4.109 6.726 17.832 22.984 21.916.349.088 3.373-.341 4.198-1.166l8.57-8.569c4.28 2.066 15.642 10.763 17.402 14.349 0 0-7.962 9.535-12.716 9.378-8.119-.269-24.802-4.591-37.453-17.242-15.877-15.878-18.38-38.267-16.468-41.228z" fill="#6661e7" data-original="#000000"/><path d="m49.233 32.561c0 1.723 1.396 3.119 3.119 3.119 4.363 0 7.913 3.549 7.913 7.913 0 1.723 1.396 3.119 3.119 3.119 1.722 0 3.119-1.396 3.119-3.119 0-7.802-6.348-14.15-14.151-14.15-1.722-.001-3.119 1.396-3.119 3.118z" fill="#6661e7" data-original="#000000"/><path d="m73 44.115c0 1.723 1.396 3.119 3.119 3.119s3.119-1.396 3.119-3.119c0-15.113-12.295-27.407-27.407-27.407-1.722 0-3.119 1.396-3.119 3.119s1.396 3.119 3.119 3.119c11.672-.001 21.169 9.496 21.169 21.169z" fill="#6661e7" data-original="#000000"/><path d="m51.348 10.238c18.946 0 34.36 15.414 34.36 34.36 0 1.723 1.396 3.119 3.119 3.119 1.722 0 3.119-1.396 3.119-3.119-.001-22.386-18.213-40.598-40.598-40.598-1.722 0-3.119 1.396-3.119 3.119s1.396 3.119 3.119 3.119z" fill="#6661e7" data-original="#000000"/></g></g></g></svg>

<svg xmlns="http://www.w3.org/2000/svg" width="87.891" height="88" viewBox="0 0 87.891 88">
  <g id="audio-call-history" transform="translate(-4.055 -4)">
    <g id="Layer_1">
      <g id="Group_1" data-name="Group 1">
        <path id="Path_2" data-name="Path 2" d="M64.7,92c3.93,0,6.725-.8,8.309-2.388L82.5,80.125a4.981,4.981,0,0,0,.826-5.742c-2.618-6.32-19.446-18.959-24.009-18.959A3.529,3.529,0,0,0,56.8,56.435l-9.017,9.016A26.2,26.2,0,0,1,30.567,49.025l9.747-9.747c1.158-1.158,1.318-2.775.477-4.806-1.938-4.678-14.539-22.38-21.656-22.38a4.651,4.651,0,0,0-3.321,1.349L6.326,22.928c-6,6,.019,33.508,16.513,50C35.942,86.034,53.726,92,64.7,92ZM10.782,27.293l8.77-8.77c1.366.7,4.388,3.193,8.5,8.167a63.419,63.419,0,0,1,6.62,9.41l-9.314,9.314a4.409,4.409,0,0,0-1.092,4.441c1.281,4.109,6.726,17.832,22.984,21.916.349.088,3.373-.341,4.2-1.166l8.57-8.569C64.3,64.1,75.659,72.8,77.419,76.385c0,0-7.962,9.535-12.716,9.378-8.119-.269-24.8-4.591-37.453-17.242C11.373,52.643,8.87,30.254,10.782,27.293Z" fill="#e44499"/>
        <path id="Path_3" data-name="Path 3" d="M49.233,32.561a3.118,3.118,0,0,0,3.119,3.119,7.922,7.922,0,0,1,7.913,7.913,3.119,3.119,0,1,0,6.238,0,14.167,14.167,0,0,0-14.151-14.15,3.118,3.118,0,0,0-3.119,3.118Z" fill="#e44499"/>
        <path id="Path_4" data-name="Path 4" d="M73,44.115a3.119,3.119,0,0,0,6.238,0A27.438,27.438,0,0,0,51.831,16.708a3.119,3.119,0,0,0,0,6.238A21.192,21.192,0,0,1,73,44.115Z" fill="#e44499"/>
        <path id="Path_5" data-name="Path 5" d="M51.348,10.238A34.4,34.4,0,0,1,85.708,44.6a3.119,3.119,0,0,0,6.238,0A40.645,40.645,0,0,0,51.348,4a3.119,3.119,0,0,0,0,6.238Z" fill="#e44499"/>
      </g>
    </g>
  </g>
</svg>
